X: 40582
T: Tommy's Tarbukas
R: reel
M: 4/4
K: Bminor
|:f2 ef dBBd|cAeA fAeA|f2 ef dBBd|cAec dBde|
f2 ef dBBd|cAeA fAeA|f2 df cAAc|1 Bbfe dBde:|2 Bbfe dBBA||
|:FBdB GBed|ceag fbfd|FBdB GBed|caec dBBA|
FBdB GBed|ceag fbfd|afdg ecAG|1 FB^Ac dBB=A:|2 FB^Ac dBde||

